X:1
T:Title
%%score { ( 1 3 ) | ( 2 4 ) }
L:1/8
Q:1/4=106
M:4/4
K:C
V:1 treble nm="Grand Piano"
V:3 treble 
V:2 bass 
V:4 bass 
V:1
 [EG]4 [_E^F]2 [D=F]2 | [CE]2 [EG]2 [Ec]4 | [Ac]4 [GB]2 A2 | [EG]6 z2 | [Fd]4 [Ge]2 B2 | %5
w: Ira~B.~Wilson * *|||||
 [Fd]2 [Ec]2 [EG]4 | B2- [GB]2 [^Fc]2 [CFA]2 | [Fd]6 B,2 | [Ge]4 [Ge]2 [Ae]2 | [Ge]2 [Fd]2 [Ec]4 | %10
w: |||||
 [EG]4 [CEG]2 [EA]2 | [EG]2 [DF]2 [CE]4 | [Ac]4 [GB]2 [FA]2 | [EG]2 [Ec]2 [Ge]4 | %14
w: ||||
 [Af]4 [Ge]2 [Fd]2 | [Ec]6 z2 | G4 A2 E2 | F2 G2 A2 B2 | [Ec]2 [Ec]2 [GB]2 [FA]2 | [FA]4 [EG]4 | %20
w: ||||||
 [FA]4 [GB]2 [GB]2 | [Gc]2 [Ge]2 [Gd]2 [Gc]2 | [GB]2 [GB]2 [^Fc]2 [Fe]2 | [Ge]4 [Gd]4 | %24
w: ||||
 [Ge]4 [Ge]2 [Ae]2 | [Ge]2 [Fd]2 [Ec]4 | [EG]4 [EG]2 [EA]2 | G2 F2 E4 | [Ac]4 [GB]2 [FA]2 | %29
w: |||||
 z4 [Ge]4 | f4 z4 | [Ec]6 z2 |] %32
w: |||
V:2
 [C,,C,]2 G,2 A,2 B,2 | C,,2 G,2 E,2 G,2 | F,,2 F,2 [C,A,]2 [F,F]2 | [C,,C,]2 G,2 E,2 G,2 | %4
 G,,2 G,2 [F,B,]2 [G,G]2 | [C,,C,]2 G,2 E,2 G,2 | D,,2 D,2 A,2 D,2 | G,,2 B,2 A,2 G,2 | %8
 [C,,C,]2 G,2 [E,C]2 G,2 | G,,2 G,2 E,2 G,2 | C,,2 G,2 E,2 G,2 | G,,2 ^G,,2 A,,2 E,,2 | %12
 F,,2 F,2 [C,A,]2 F,2 | G,,2 G,2 [E,C]2 G,2 | z2 G,6 | [C,G,C]6 z2 | [G,CE]4 [G,CE]2 [G,C]2 | %17
 [G,B,D]2 [G,B,E]2 [G,B,F]2 [G,F]2 | [C,G,]2 [C,G,]2 [C,A,]2 [C,B,]2 | [C,C]4 [C,C]4 | %20
 [F,C]4 [F,D]2 [F,D]2 | [E,C]2 [C,C]2 [D,B,]2 [E,C]2 | [D,D]2 [D,D]2 [D,A,]2 [D,C]2 | %23
 [G,C]4 [G,B,]4 | [C,C]4 [C,C]2 [C,C]2 | [G,C]2 [G,B,]2 [C,G,]4 | [C,C]4 [C,C]2 [C,C]2 | %27
 [G,CE]2 [^G,B,D]2 [A,C]4 | [F,C]4 [F,C]2 [F,C]2 | z4 C2 z2 | [D,A,]4[K:treble] [G,B,G]2 [G,F]2 | %31
 [C,G,]6 z2 |] %32
V:3
 x8 | z4 C2 z2 | x8 | z4 C2 z2 | x8 | z4 C2 z2 | D2 z2 z4 | x8 | x8 | z4 C2 z2 | x8 | x8 | x8 | %13
 x8 | x8 | x8 | x8 | x8 | x8 | x8 | x8 | x8 | x8 | x8 | x8 | x8 | x8 | x8 | x8 | %29
 [EG]2 [Ec]2 z2 _B,2 | F2 A2 e2 d2 | x8 |] %32
V:4
 x8 | x8 | x8 | x8 | x8 | x8 | x8 | x8 | x8 | x8 | x8 | x8 | x8 | x8 | G,,2 z2 A,2 B,2 | x8 | x8 | %17
 x8 | x8 | x8 | x8 | x8 | x8 | x8 | x8 | x8 | x8 | x8 | x8 | [C,C]2 [C,C]2 C,4 | x4[K:treble] x4 | %31
 x8 |] %32

